X: 4
T: Paddy's Green Shamrock Shore
R: waltz
M: 3/4
L: 1/8
K: Cmaj
G2|"G"d3e f2|d4 G2|d3B d2|"C"c2B2G2|"F"F3E F2|"G"G4 G2|
G6-|G4 gf|"C"e3d c2|"G"d3e f2|"G7"g3f e2|d4 g2|f3ed2|
"C"cG3 A2|"F"F6-|F4 g2|"C"e3d c2|"G"d3e f2|"G7"g3f e2|
d4 g2|"F"f3e d2|"C"cG3A2|"F"F6-|F4 G2|"G7"d3e f2|
d4G2|"G"d3B d2|"C"c2B2G2|"F"F3E F2|"C"G4 G2|"G"G6||


Tune 5936	Setting 25211

